X:1
T:Autumn (theme, The Four Seasons)
C:Antonio Vivaldi
M:4/4
L:1/8
Q:1/4=120
K:F
c | cccc BAGF | FEDC DEFG | A2 BG A2 FG | F6 z2 |
cccc BAGF | FEDC DEFG | ABcB A2 GA | F4 EF GA |
cBAG FEDC | F8 |]
